source/docs/assets/img/logo-semaphore.svg

<?xml version="1.0" encoding="UTF-8" standalone="no"?>
<svg width="181px" height="45px" viewBox="0 0 181 45" version="1.1" xmlns="http://www.w3.org/2000/svg" xmlns:xlink="http://www.w3.org/1999/xlink" xmlns:sketch="http://www.bohemiancoding.com/sketch/ns">
    <!-- Generator: Sketch 3.2.2 (9983) - http://www.bohemiancoding.com/sketch -->
    <title>logo-semaphore</title>
    <desc>Created with Sketch.</desc>
    <defs></defs>
    <g id="Page-1" stroke="none" stroke-width="1" fill="none" fill-rule="evenodd" sketch:type="MSPage">
        <g id="logo-semaphore" sketch:type="MSLayerGroup">
            <g id="Page-2" sketch:type="MSShapeGroup">
                <g id="single-post-2">
                    <g id="nav">
                        <g id="logo-horizontal">
                            <path d="M57.7827986,29.8019182 C56.3227633,29.8019182 54.2285936,29.4402832 52.9065795,28.9948234 L53.5400777,26.0182394 C54.6423392,26.3519328 56.1020565,26.6300642 57.5897597,26.6300642 C58.7747067,26.6300642 58.9677456,26.2963708 58.9677456,25.4889547 C58.9677456,24.6272613 58.9397597,24.5154949 56.7912085,23.9868526 C53.5400777,23.1804 53.2373216,22.2898015 53.2373216,19.7577139 C53.2373216,16.8919328 54.339265,15.6959036 58.3612792,15.6959036 C59.3802191,15.6959036 61.254,15.8352905 62.438947,16.1413635 L62.0805371,19.2573343 C60.8959081,19.0344438 59.4355548,18.8674365 58.388629,18.8674365 C57.2319859,18.8674365 56.9559435,19.1735095 56.9559435,19.7853343 C56.9559435,20.6203708 57.0666148,20.7318161 58.6640353,21.0937723 C62.4939647,21.9554657 62.769689,22.7908234 62.769689,25.4889547 C62.769689,28.2718745 61.6124099,29.8019182 57.7827986,29.8019182" id="Fill-1" fill="#4A4A4A"></path>
                            <path d="M72.2759152,20.5645839 C72.2759152,19.6193869 72.0008269,18.8399124 70.622841,18.8399124 C69.2458092,18.8399124 68.8043958,19.6193869 68.8043958,20.5645839 L68.8043958,21.1491095 L72.2759152,21.1491095 L72.2759152,20.5645839 L72.2759152,20.5645839 Z M68.8043958,24.1539562 L68.8043958,24.543854 C68.8043958,26.1015182 69.4111802,26.5190365 71.2293074,26.5190365 C72.468318,26.5190365 74.1220283,26.2964672 75.3069753,25.9345109 L75.8854558,28.9390365 C74.673477,29.3844964 72.7170106,29.8020146 70.8438657,29.8020146 C66.4907915,29.8020146 64.8380353,27.631562 64.8380353,24.2930219 L64.8380353,21.1211679 C64.8380353,18.1995036 66.1323816,15.696 70.5954912,15.696 C75.0586007,15.696 76.023159,18.3661898 76.023159,21.316438 L76.023159,24.1539562 L68.8043958,24.1539562 L68.8043958,24.1539562 Z" id="Fill-3" fill="#4A4A4A"></path>
                            <path d="M86.742159,29.5237226 L86.742159,20.5644234 C86.742159,19.9519562 86.4664346,19.5912847 85.7782367,19.5912847 C85.062053,19.5912847 83.7390848,20.0916642 82.8848799,20.5644234 L82.8848799,29.5237226 L78.9175654,29.5237226 L78.9175654,15.974292 L81.866258,15.974292 L82.2793675,17.003635 C83.9321237,16.1958978 86.081311,15.6958394 87.6240318,15.6958394 C88.8086608,15.6958394 89.60753,16.1682774 90.0756572,17.003635 C91.5913463,16.251781 93.6025124,15.6958394 95.4479894,15.6958394 C97.7348799,15.6958394 98.5337491,17.4208321 98.5337491,20.035781 L98.5337491,29.5237226 L94.5667527,29.5237226 L94.5667527,20.5644234 C94.5667527,19.9519562 94.2913463,19.5912847 93.6025124,19.5912847 C92.8856926,19.5912847 91.5633604,20.0916642 90.7101095,20.5644234 L90.7101095,29.5237226 L86.742159,29.5237226 L86.742159,29.5237226 Z" id="Fill-5" fill="#4A4A4A"></path>
                            <path d="M108.455788,24.6550745 L106.554339,24.6550745 C105.700452,24.6550745 105.369392,24.8773226 105.369392,25.6282131 C105.369392,26.3800672 105.673102,26.6861401 106.443986,26.6861401 C107.269887,26.6861401 107.849004,26.4911912 108.455788,26.2130599 L108.455788,24.6550745 L108.455788,24.6550745 Z M109.171336,29.5236584 L108.896247,28.6606803 C107.353208,29.5236584 105.975541,29.8017898 105.066318,29.8017898 C102.586707,29.8017898 101.567449,27.9936146 101.567449,25.6837752 C101.567449,22.9577022 102.807731,21.8721547 105.562431,21.8721547 L108.455788,21.8721547 L108.455788,20.8431328 C108.455788,19.4521547 108.207413,18.9787533 106.085576,18.9787533 C104.901583,18.9787533 103.716636,19.1181401 102.448686,19.3686511 L101.925859,16.363162 C103.193491,15.9745489 105.204021,15.6957752 106.747696,15.6957752 C111.403208,15.6957752 112.422466,17.1143737 112.422466,20.8710745 L112.422466,29.5236584 L109.171336,29.5236584 L109.171336,29.5236584 Z" id="Fill-7" fill="#4A4A4A"></path>
                            <path d="M119.69771,25.9902336 C120.386544,26.1572409 121.405802,26.3242482 122.232657,26.3242482 C123.279265,26.3242482 123.665025,25.6838394 123.665025,24.7942044 L123.665025,20.7041314 C123.665025,19.7576496 123.279265,19.1734453 122.232657,19.1734453 C121.323753,19.1734453 120.276509,19.729708 119.69771,20.2304088 L119.69771,25.9902336 L119.69771,25.9902336 Z M127.632021,24.7942044 C127.632021,27.9933577 126.254353,29.801854 123.113894,29.801854 C122.011951,29.801854 120.606297,29.6348467 119.69771,29.4122774 L119.69771,35.0047737 L115.730396,35.5616788 L115.730396,15.974292 L118.843505,15.974292 L119.257251,17.0588759 C120.193505,16.4467299 121.929583,15.6958394 123.389618,15.6958394 C126.11665,15.6958394 127.632021,17.3932117 127.632021,20.7041314 L127.632021,24.7942044 L127.632021,24.7942044 Z" id="Fill-9" fill="#4A4A4A"></path>
                            <path d="M138.351021,29.5237226 L138.351021,20.5644234 C138.351021,19.9519562 138.075933,19.5912847 137.387099,19.5912847 C136.670915,19.5912847 135.349219,20.1472263 134.494378,20.592365 L134.494378,29.5237226 L130.527064,29.5237226 L130.527064,10.4373577 L134.439042,9.88045255 L134.439042,16.9474307 C136.064767,16.1958978 137.690173,15.6958394 139.232894,15.6958394 C141.519466,15.6958394 142.318972,17.4208321 142.318972,20.035781 L142.318972,29.5237226 L138.351021,29.5237226 L138.351021,29.5237226 Z" id="Fill-11" fill="#4A4A4A"></path>
                            <path d="M153.230947,24.4320876 L153.230947,21.065927 C153.230947,19.7851095 152.570099,19.0621606 151.137095,19.0621606 C149.704728,19.0621606 149.043244,19.7851095 149.043244,21.065927 L149.043244,24.4320876 C149.043244,25.7116204 149.704728,26.4355328 151.137095,26.4355328 C152.570099,26.4355328 153.230947,25.7116204 153.230947,24.4320876 M145.076565,24.3206423 L145.076565,21.1770511 C145.076565,18.3941314 146.37123,15.696 151.137095,15.696 C155.903597,15.696 157.198261,18.3941314 157.198261,21.1770511 L157.198261,24.3206423 C157.198261,27.1025985 155.903597,29.8020146 151.137095,29.8020146 C146.37123,29.8020146 145.076565,27.1025985 145.076565,24.3206423" id="Fill-13" fill="#4A4A4A"></path>
                            <path d="M164.060428,21.2605547 L164.060428,29.5238832 L160.093113,29.5238832 L160.093113,15.9744526 L163.39958,15.9744526 L163.674668,17.2816058 C164.500251,16.7250219 166.208979,15.9185693 167.283572,15.696 L167.613996,19.4796788 C166.429367,19.9521168 164.914633,20.6480876 164.060428,21.2605547" id="Fill-15" fill="#4A4A4A"></path>
                            <path d="M176.348958,20.5645839 C176.348958,19.6193869 176.073233,18.8399124 174.695565,18.8399124 C173.318534,18.8399124 172.877438,19.6193869 172.877438,20.5645839 L172.877438,21.1491095 L176.348958,21.1491095 L176.348958,20.5645839 L176.348958,20.5645839 Z M172.877438,24.1539562 L172.877438,24.543854 C172.877438,26.1015182 173.484223,26.5190365 175.301714,26.5190365 C176.541042,26.5190365 178.195071,26.2964672 179.379382,25.9345109 L179.957862,28.9390365 C178.746519,29.3844964 176.790053,29.8020146 174.915318,29.8020146 C170.562562,29.8020146 168.910124,27.631562 168.910124,24.2930219 L168.910124,21.1211679 C168.910124,18.1995036 170.204788,15.696 174.668216,15.696 C179.132279,15.696 180.096201,18.3661898 180.096201,21.316438 L180.096201,24.1539562 L172.877438,24.1539562 L172.877438,24.1539562 Z" id="Fill-17" fill="#4A4A4A"></path>
                            <path d="M27.9844664,20.3500438 C29.3290601,23.7836496 27.662947,27.667854 24.2629823,29.0257518 C22.3720283,29.7804964 20.3446431,29.592292 18.6845724,28.6891679 L10.998636,36.4511533 C10.9563392,36.7954453 10.8240424,37.7184818 10.8240424,37.7184818 L10.0029117,42.1210511 C10.9553852,42.9689343 11.687788,43.5271241 12.9159859,44.064438 C14.2316396,44.6396496 15.2257739,44.8137226 16.5799081,44.9142482 L19.1164452,41.2214599 L18.9790601,41.1636496 C20.8134064,41.4559124 22.7056325,41.4674745 24.5946784,41.1761752 L24.4779647,41.2246715 L26.9795194,44.9248467 C28.2455618,44.8439124 29.1554205,44.7154453 30.3998375,44.2182774 C31.7329823,43.6861022 32.5576113,43.098365 33.5854558,42.2029489 L32.792947,37.7807883 L32.6520636,37.8389197 C34.1992367,36.7048759 35.5342898,35.3456934 36.6371873,33.8304234 L36.5863039,33.9543942 L40.9463746,34.784292 C41.7859505,33.8217518 42.3383534,33.0824234 42.8704028,31.8427153 C43.4402968,30.5137226 43.6120283,29.5094307 43.7122049,28.142219 L40.0552792,25.5799416 L39.9993074,25.7145109 C40.2887067,23.8767883 40.3058799,21.9825401 40.0279293,20.0905401 L40.0584594,20.1666569 L43.7220636,17.6393869 C43.6416042,16.3604964 43.5147138,15.4429197 43.023053,14.1858686 C42.4954558,12.8385693 41.9141131,12.0064234 41.0271519,10.9680876 L36.648318,11.7681168 C36.648318,11.7681168 35.5746784,11.9421898 35.2254912,11.9845839 L27.6502261,19.6344818 C27.7733004,19.864438 27.8868339,20.1011387 27.9844664,20.3500438" id="Fill-19" fill="#8EB43F"></path>
                            <path d="M24.4502014,16.7808088 C21.0499187,15.4225898 17.2037703,17.1051883 15.8594947,20.5391153 C15.1118269,22.4484584 15.2978693,24.4959036 16.1924629,26.1720788 L8.50620848,33.9343854 C8.16560777,33.9771007 7.25161484,34.1107066 7.25161484,34.1107066 L2.89186219,34.939962 C2.05260424,33.9780642 1.49956537,33.2384146 0.968151943,31.9983854 C0.398257951,30.6693927 0.226526502,29.6657431 0.126349823,28.2975679 L3.78327562,25.7368964 L3.84051943,25.8753197 C3.55112014,24.0228234 3.53935336,22.1115533 3.82779859,20.2038161 L3.78009541,20.3220058 L0.115537102,17.7953781 C0.195996466,16.5164876 0.323522968,15.5982686 0.816137809,14.3415387 C1.3424629,12.9948818 1.9244417,12.1620934 2.81108481,11.1237577 L7.18991873,11.9244292 L7.13203887,12.0667066 C8.25560777,10.504546 9.6014735,9.15628321 11.1015795,8.04183066 L10.9788233,8.09321752 L10.1570565,3.69032701 C11.1104841,2.84276496 11.8425689,2.28489635 13.0704488,1.74790365 C14.3861025,1.17204964 15.3802367,0.99829781 16.734053,0.897129927 L19.2715442,4.59056058 L19.1382933,4.64708613 C20.9576926,4.35450219 22.8333816,4.33715912 24.7071625,4.61818102 L24.6314735,4.58702774 L27.1339823,0.887173723 C28.4003428,0.968429197 29.3095654,1.09689635 30.5539823,1.59374307 C31.8877633,2.12591825 32.7120742,2.71365547 33.7399187,3.6084292 L32.9480459,8.03123212 C32.9480459,8.03123212 32.7759965,9.11549489 32.7330636,9.46781606 L25.1584346,17.118035 C24.9310495,16.9943854 24.6963498,16.8790861 24.4502014,16.7808088" id="Fill-21" fill="#BF1919"></path>
                        </g>
                    </g>
                </g>
            </g>
        </g>
    </g>
</svg>

<?xml version="1.0" encoding="UTF-8" standalone="no"?>
<svg xmlns:sketch="http://www.bohemiancoding.com/sketch/ns" xmlns="http://www.w3.org/2000/svg" height="45px" width="181px" version="1.1" xmlns:xlink="http://www.w3.org/1999/xlink" viewBox="0 0 181 45"><!-- Generator: Sketch 3.2.2 (9983) - http://www.bohemiancoding.com/sketch -->
 <title>logo-semaphore</title>
 <desc>Created with Sketch.</desc>
 <g id="Page-1" fill-rule="evenodd" sketch:type="MSPage" fill="none">
  <g id="logo-semaphore" sketch:type="MSLayerGroup">
   <g id="Page-2" sketch:type="MSShapeGroup">
    <g id="single-post-2">
     <g id="nav">
      <g id="logo-horizontal">
       <path id="Fill-1" fill="#4A4A4A" d="m57.783 29.8c-1.46 0-3.583-0.4-4.883-0.8l0.64-3c1.102 0.4 2.56 0.6 4.06 0.6 1.175 0 1.4-0.3 1.4-1.1-0.032-0.9-0.1-1-2.2-1.5-3.26-0.8-3.6-1.7-3.6-4.2 0.037-2.9 1.1-4.1 5.2-4.1 0.98 0 2.9 0.1 4 0.4l-0.319 3.2c-1.185-0.3-2.681-0.4-3.681-0.4-1.168 0-1.4 0.3-1.4 0.9-0.044 0.8 0.1 0.9 1.7 1.3 3.794 0.9 4.1 1.7 4.1 4.4-0.03 2.8-1.2 4.3-5 4.3"/>
       <path id="Fill-3" fill="#4A4A4A" d="m72.276 20.6c0-1-0.276-1.8-1.676-1.8-1.354 0-1.8 0.8-1.8 1.8l0.004 0.5h3.472v-0.5zm-3.472 3.6v0.3c0 1.6 0.596 2 2.396 2 1.268 0 2.9-0.2 4.1-0.6l0.585 3c-1.212 0.5-3.185 0.9-5.085 0.9-4.309 0-6-2.2-6-5.5l0.038-3.2c0-2.9 1.262-5.4 5.762-5.4 4.459 0 5.4 2.7 5.4 5.6l0.023 2.9h-7.219z"/>
       <path id="Fill-5" fill="#4A4A4A" d="m86.742 29.5v-8.9c0-0.6-0.242-1-0.942-1-0.738 0-2.1 0.5-2.9 1l-0.015 8.9h-3.967v-13.5h2.948l0.413 1c1.653-0.8 3.821-1.3 5.321-1.3 1.209 0 2 0.5 2.5 1.3 1.491-0.7 3.5-1.3 5.3-1.3 2.335 0 3.1 1.7 3.1 4.3l0.034 9.5h-3.967v-8.9c0-0.6-0.267-1-0.967-1-0.714 0-2 0.5-2.9 1l0.01 8.9h-3.968z"/>
       <path id="Fill-7" fill="#4A4A4A" d="m108.46 24.7h-1.91c-0.85 0-1.15 0.2-1.15 0.9-0.03 0.8 0.3 1.1 1 1.1 0.87 0 1.4-0.2 2.1-0.5l-0.04-1.5zm0.71 4.8l-0.27-0.8c-1.55 0.8-2.9 1.1-3.8 1.1-2.51 0-3.5-1.8-3.5-4.1-0.03-2.7 1.2-3.8 4-3.8h2.86v-1.1c0-1.3-0.26-1.8-2.36-1.8-1.2 0-2.4 0.1-3.7 0.4l-0.47-3c1.26-0.4 3.27-0.7 4.77-0.7 4.7 0 5.7 1.4 5.7 5.2l0.02 8.6h-3.25z"/>
       <path id="Fill-9" fill="#4A4A4A" d="m119.7 26c0.69 0.2 1.7 0.3 2.5 0.3 1.08 0 1.5-0.6 1.5-1.5l-0.03-4.1c0-0.9-0.37-1.5-1.47-1.5-0.88 0-1.9 0.5-2.5 1v5.8zm7.93-1.2c0 3.2-1.33 5-4.53 5-1.09 0-2.5-0.2-3.4-0.4v5.6l-3.97 0.6v-19.6h3.11l0.42 1.1c0.93-0.7 2.64-1.4 4.14-1.4 2.72 0 4.2 1.7 4.2 5l0.03 4.1z"/>
       <path id="Fill-11" fill="#4A4A4A" d="m138.35 29.5v-8.9c0-0.6-0.25-1-0.95-1-0.73 0-2.1 0.5-2.9 1l-0.01 8.9h-3.96v-19.1l3.91-0.5v7c1.62-0.7 3.26-1.2 4.76-1.2 2.32 0 3.1 1.7 3.1 4.3l0.02 9.5h-3.97z"/>
       <path id="Fill-13" fill="#4A4A4A" d="m153.23 24.4v-3.3c0-1.3-0.63-2-2.13-2-1.4 0-2.1 0.7-2.1 2l0.04 3.3c0 1.3 0.66 2 2.06 2 1.47 0 2.1-0.7 2.1-2m-8.12-0.1v-3.1c0-2.8 1.32-5.5 6.02-5.5 4.8 0 6.1 2.7 6.1 5.5v3.1c0 2.8-1.3 5.5-6.1 5.5-4.73 0-6-2.7-6-5.5"/>
       <path id="Fill-15" fill="#4A4A4A" d="m164.06 21.3v8.2h-3.97v-13.5h3.31l0.27 1.3c0.83-0.6 2.53-1.4 3.63-1.6l0.31 3.8c-1.18 0.5-2.71 1.1-3.51 1.8"/>
       <path id="Fill-17" fill="#4A4A4A" d="m176.35 20.6c0-1-0.25-1.8-1.65-1.8-1.38 0-1.8 0.8-1.8 1.8l-0.02 0.5h3.47v-0.5zm-3.47 3.6v0.3c0 1.6 0.62 2 2.42 2 1.24 0 2.9-0.2 4.1-0.6l0.56 3c-1.21 0.5-3.16 0.9-5.06 0.9-4.34 0-6-2.2-6-5.5l0.01-3.2c0-2.9 1.29-5.4 5.79-5.4 4.43 0 5.4 2.7 5.4 5.6v2.9h-7.22z"/>
       <path id="Fill-19" fill="#8EB43F" d="m27.984 20.4c1.345 3.4-0.284 7.3-3.684 8.6-1.928 0.8-4 0.6-5.6-0.3l-7.701 7.8c-0.043 0.3-0.199 1.2-0.199 1.2l-0.797 4.4c0.952 0.9 1.697 1.4 2.897 2 1.332 0.5 2.3 0.7 3.7 0.8l2.516-3.7h-0.137c1.834 0.3 3.721 0.3 5.621 0h-0.122l2.502 3.7c1.266-0.1 2.22-0.2 3.42-0.7 1.333-0.5 2.2-1.1 3.2-2l-0.807-4.4h-0.141c1.547-1.1 2.848-2.5 3.948-4l-0.014 0.2 4.36 0.8c0.84-1 1.354-1.7 1.954-3 0.54-1.3 0.7-2.3 0.8-3.7l-3.645-2.5-0.056 0.1c0.29-1.8 0.301-3.7 0.001-5.6l0.058 0.1 3.664-2.6c-0.08-1.2-0.222-2.2-0.722-3.4-0.505-1.4-1.1-2.2-2-3.2l-4.352 0.8s-1.048 0.1-1.448 0.2l-7.55 7.6c0.123 0.3 0.25 0.5 0.35 0.8"/>
       <path id="Fill-21" fill="#BF1919" d="m24.45 16.8c-3.4-1.4-7.25 0.3-8.55 3.7-0.788 1.9-0.6 4 0.3 5.7l-7.6938 7.7c-0.3406 0.1-1.2062 0.2-1.2062 0.2l-4.4081 0.8c-0.8393-0.9-1.3919-1.7-1.8919-2.9-0.60174-1.3-0.8-2.3-0.9-3.7l3.6833-2.6 0.0572 0.2c-0.2894-1.9-0.3405-3.8-0.0405-5.7l-0.0199 0.1-3.6646-2.5c0.0805-1.3 0.1845-2.2 0.6845-3.5 0.5425-1.3 1.1-2.1 2-3.2l4.3899 0.8-0.0579 0.2c1.1236-1.6 2.468-2.9 3.968-4.1l-0.121 0.1-0.822-4.4c0.953-0.9 1.643-1.4 2.943-2 1.286-0.5 2.3-0.7 3.6-0.8l2.572 3.7h-0.134c1.82-0.2 3.662-0.3 5.562 0h-0.069l2.503-3.7c1.266 0.1 2.166 0.2 3.466 0.7 1.288 0.5 2.1 1.1 3.1 2l-0.752 4.4s-0.148 1.1-0.248 1.5l-7.542 7.6c-0.227-0.1-0.458-0.2-0.658-0.3"/>
      </g>
     </g>
    </g>
   </g>
  </g>
 </g>
</svg>
